X:1
T:The Flower of Northumberland
M:6/8
L:1/8
K:G
 D| D3/2 E/2 F GBd| c3/2 B/2 A G3| Ggg gfe| d3/2 c/2 A d2 d| d3/2 e/2 f gfe|\
 dgBB-A D| D3/2 E/2 F GBd| c3/2- B/2 A G2 z|
